lib/logo_tmp/nrk-logo-nrk-nyheter-symbol.svg

<svg xmlns="http://www.w3.org/2000/svg" viewBox="0 0 26 26"><path fill="#000" d="M13.152.5C20.104.5 25.5 6.207 25.5 13.199c0 6.935-5.82 12.301-12.661 12.301C5.924 25.5.5 19.931.5 12.995.5 5.94 6.237.5 13.152.5ZM6.135 17.087V13.55l.35-.102v-.49H5.05v.49l.34.102v2.16l-1.353-2.752H2.802v.49l.34.102v2.936l-.34.093v.508H4.23v-.508l-.331-.093v-1.93h.009l1.298 2.53h.93l-.001.001Zm3.527-2.577v-.517H8.465v.498l.267.084-.488 1.754h-.018l-.452-1.754.286-.074v-.508H6.559v.508l.23.083.829 2.604-.055.148c-.083.185-.184.25-.387.25-.193 0-.405-.093-.506-.12l-.185.627c.185.083.507.203.884.203.663 0 .976-.387 1.243-1.21l.82-2.511.23-.065Zm3.38 2.577v-.5l-.35-.092v-1.57c0-.674-.295-.997-.866-.997-.378 0-.598.139-.829.37h-.027v-1.34H9.754v.48l.34.093v2.964l-.34.093v.499h1.602v-.5l-.359-.092v-1.634a.714.714 0 0 1 .47-.185c.22 0 .322.13.322.48v1.93h1.252l.001.001Zm1.814-.665c-.47 0-.645-.26-.664-.628h1.658c.018-.139.037-.333.037-.453 0-.951-.415-1.413-1.225-1.413-.856 0-1.409.582-1.409 1.616 0 1.109.571 1.607 1.474 1.607.488 0 .874-.148 1.15-.305l-.175-.618a2.303 2.303 0 0 1-.846.194Zm-.222-1.82c.323 0 .424.213.424.628h-.856c.009-.341.101-.628.432-.628Zm2.827 2.55c.221 0 .636-.065.838-.204l-.165-.582a.99.99 0 0 1-.378.093c-.221 0-.304-.102-.304-.38v-1.403h.682v-.683h-.682v-.74h-.709l-.156.74h-.452v.683h.415v1.533c0 .647.258.942.911.942v.001Zm2.57-.73c-.47 0-.645-.26-.664-.628h1.658c.018-.139.037-.333.037-.453 0-.951-.415-1.413-1.225-1.413-.856 0-1.409.582-1.409 1.616 0 1.109.571 1.607 1.473 1.607a2.31 2.31 0 0 0 1.152-.305l-.175-.618a2.308 2.308 0 0 1-.848.194h.001Zm-.222-1.82c.323 0 .424.213.424.628h-.856c.009-.341.1-.628.432-.628Zm3.37.277c.056 0 .24.01.323.019v-.942s-.13-.028-.276-.028c-.313 0-.571.203-.682.582h-.027l-.12-.517h-.995v.508l.323.083v1.92l-.323.084v.499h1.713v-.5l-.488-.1v-1.33c.11-.204.304-.278.552-.278Zm-7.08-3.592v-4.12c0-.045-.037-.045-.037-.045h-1.409s-.037 0-.037.046v4.119c0 .055.037.055.037.055h1.409s.037 0 .037-.055ZM12.903 7.85c0 .388.258.813.829.813a.787.787 0 0 0 .801-.785c0-.49-.322-.859-.81-.859-.405 0-.82.268-.82.831Zm-3.278 3.436c.01.055.046.055.046.055h1.483c.046 0 .046-.055.046-.055l-.792-3.473c-.083-.424-.378-.692-.783-.692h-.884c-.046 0-.046 0-.046.046l.93 4.119ZM7.13 7.167v4.12c0 .055 0 .055.046.055h1.436v-4.22H7.176c-.046 0-.046 0-.046.046v-.001Zm4.208 0v4.12c0 .055 0 .055.037.055h1.353c.037 0 .037 0 .037-.055v-4.12c0-.045 0-.045-.037-.045h-1.353c-.037 0-.037 0-.037.046v-.001Zm5.064 1.691c-.193.314-.175.397-.027.674l1.05 1.783c.009.018.027.027.073.027h1.547s.046-.009.01-.055L17.94 9.412c-.101-.166-.11-.203-.046-.35l1.16-1.894c.01-.028 0-.046-.027-.046h-1.529c-.064 0-.083.046-.083.046l-1.013 1.69Z"/></svg>

<svg width="26" height="26" viewBox="0 0 26 26" fill="none" xmlns="http://www.w3.org/2000/svg">
<path d="M13.152 0.5C20.104 0.5 25.5 6.207 25.5 13.199C25.5 20.134 19.68 25.5 12.839 25.5C5.924 25.5 0.5 19.931 0.5 12.995C0.5 5.94 6.237 0.5 13.152 0.5ZM6.135 17.087V13.55L6.485 13.448V12.958H5.05V13.448L5.39 13.55V15.71L4.037 12.958H2.802V13.448L3.142 13.55V16.486L2.802 16.579V17.087H4.23V16.579L3.899 16.486V14.556H3.908L5.206 17.086H6.136L6.135 17.087ZM9.662 14.51V13.993H8.465V14.491L8.732 14.575L8.244 16.329H8.226L7.774 14.575L8.06 14.501V13.993H6.559V14.501L6.789 14.584L7.618 17.188L7.563 17.336C7.48 17.521 7.379 17.586 7.176 17.586C6.983 17.586 6.771 17.493 6.67 17.466L6.485 18.093C6.67 18.176 6.992 18.296 7.369 18.296C8.032 18.296 8.345 17.909 8.612 17.086L9.432 14.575L9.662 14.51ZM13.042 17.087V16.587L12.692 16.495V14.925C12.692 14.251 12.397 13.928 11.826 13.928C11.448 13.928 11.228 14.067 10.997 14.298H10.97V12.958H9.754V13.438L10.094 13.531V16.495L9.754 16.588V17.087H11.356V16.587L10.997 16.495V14.861C11.1259 14.7441 11.293 14.6783 11.467 14.676C11.687 14.676 11.789 14.806 11.789 15.156V17.086H13.041L13.042 17.087ZM14.856 16.422C14.386 16.422 14.211 16.162 14.192 15.794H15.85C15.868 15.655 15.887 15.461 15.887 15.341C15.887 14.39 15.472 13.928 14.662 13.928C13.806 13.928 13.253 14.51 13.253 15.544C13.253 16.653 13.824 17.151 14.727 17.151C15.215 17.151 15.601 17.003 15.877 16.846L15.702 16.228C15.389 16.357 15.095 16.422 14.856 16.422ZM14.634 14.602C14.957 14.602 15.058 14.815 15.058 15.23H14.202C14.211 14.889 14.303 14.602 14.634 14.602ZM17.461 17.152C17.682 17.152 18.097 17.087 18.299 16.948L18.134 16.366C18.0154 16.4217 17.8869 16.4533 17.756 16.459C17.535 16.459 17.452 16.357 17.452 16.079V14.676H18.134V13.993H17.452V13.253H16.743L16.587 13.993H16.135V14.676H16.55V16.209C16.55 16.856 16.808 17.151 17.461 17.151V17.152ZM20.031 16.422C19.561 16.422 19.386 16.162 19.367 15.794H21.025C21.043 15.655 21.062 15.461 21.062 15.341C21.062 14.39 20.647 13.928 19.837 13.928C18.981 13.928 18.428 14.51 18.428 15.544C18.428 16.653 18.999 17.151 19.901 17.151C20.3051 17.1518 20.7023 17.0467 21.053 16.846L20.878 16.228C20.565 16.357 20.27 16.422 20.03 16.422H20.031ZM19.809 14.602C20.132 14.602 20.233 14.815 20.233 15.23H19.377C19.386 14.889 19.477 14.602 19.809 14.602ZM23.179 14.879C23.235 14.879 23.419 14.889 23.502 14.898V13.956C23.502 13.956 23.372 13.928 23.226 13.928C22.913 13.928 22.655 14.131 22.544 14.51H22.517L22.397 13.993H21.402V14.501L21.725 14.584V16.504L21.402 16.588V17.087H23.115V16.587L22.627 16.487V15.157C22.737 14.953 22.931 14.879 23.179 14.879ZM16.099 11.287V7.167C16.099 7.122 16.062 7.122 16.062 7.122H14.653C14.653 7.122 14.616 7.122 14.616 7.168V11.287C14.616 11.342 14.653 11.342 14.653 11.342H16.062C16.062 11.342 16.099 11.342 16.099 11.287ZM12.903 7.85C12.903 8.238 13.161 8.663 13.732 8.663C13.8364 8.66486 13.94 8.64594 14.037 8.60735C14.134 8.56875 14.2223 8.51126 14.2969 8.4382C14.3714 8.36515 14.4307 8.278 14.4712 8.18182C14.5117 8.08565 14.5328 7.98237 14.533 7.878C14.533 7.388 14.211 7.019 13.723 7.019C13.318 7.019 12.903 7.287 12.903 7.85ZM9.625 11.286C9.635 11.341 9.671 11.341 9.671 11.341H11.154C11.2 11.341 11.2 11.286 11.2 11.286L10.408 7.813C10.325 7.389 10.03 7.121 9.625 7.121H8.741C8.695 7.121 8.695 7.121 8.695 7.167L9.625 11.286ZM7.13 7.167V11.287C7.13 11.342 7.13 11.342 7.176 11.342H8.612V7.122H7.176C7.13 7.122 7.13 7.122 7.13 7.168V7.167ZM11.338 7.167V11.287C11.338 11.342 11.338 11.342 11.375 11.342H12.728C12.765 11.342 12.765 11.342 12.765 11.287V7.167C12.765 7.122 12.765 7.122 12.728 7.122H11.375C11.338 7.122 11.338 7.122 11.338 7.168V7.167ZM16.402 8.858C16.209 9.172 16.227 9.255 16.375 9.532L17.425 11.315C17.434 11.333 17.452 11.342 17.498 11.342H19.045C19.045 11.342 19.091 11.333 19.055 11.287L17.94 9.412C17.839 9.246 17.83 9.209 17.894 9.062L19.054 7.168C19.064 7.14 19.054 7.122 19.027 7.122H17.498C17.434 7.122 17.415 7.168 17.415 7.168L16.402 8.858Z" fill="black"/>
</svg>
